src/assets/icons/camera.svg

<svg fill="none" height="40" viewBox="0 0 40 40" width="40" xmlns="http://www.w3.org/2000/svg"><path clip-rule="evenodd" d="m8.81574 12.7482c-1.09154 1.7839-1.81574 4.3436-1.81574 7.2518s.7242 5.4679 1.81574 7.2518c1.10287 1.8024 2.44196 2.6282 3.68426 2.6282s2.5814-.8258 3.6843-2.6282c.7533-1.2312 1.3316-2.8319 1.6177-4.6616-.5373 1.8239-1.4569 3.0262-2.5012 3.0262-1.6569 0-3-3.0265-3-6.76 0-3.7334 1.3431-6.76 3-6.76.1763 0 .349.0343.517.1-1.0255-1.4199-2.2102-2.0764-3.3178-2.0764-1.2423 0-2.58139.8258-3.68426 2.6282zm-2.53098-1.675c1.43064-2.3381 3.59151-4.0732 6.21524-4.0732 2.6237 0 4.7846 1.7351 6.2152 4.0732.5054.8258.9371 1.7504 1.2848 2.7498.3477-.9994.7794-1.924 1.2848-2.7498 1.4306-2.3381 3.5915-4.0732 6.2152-4.0732s4.7846 1.7351 6.2152 4.0732c1.442 2.3565 2.2848 5.5169 2.2848 8.9268s-.8428 6.5703-2.2848 8.9268c-1.4306 2.3381-3.5915 4.0732-6.2152 4.0732s-4.7846-1.7351-6.2152-4.0732c-.5054-.8258-.9371-1.7504-1.2848-2.7498-.3477.9994-.7794 1.924-1.2848 2.7498-1.4306 2.3381-3.5915 4.0732-6.2152 4.0732-2.62373 0-4.7846-1.7351-6.21524-4.0732-1.44196-2.3565-2.28476-5.5169-2.28476-8.9268s.8428-6.5703 2.28476-8.9268zm17.53094 1.675c-1.0915 1.7839-1.8157 4.3436-1.8157 7.2518s.7242 5.4679 1.8157 7.2518c1.1029 1.8024 2.442 2.6282 3.6843 2.6282s2.5814-.8258 3.6843-2.6282c.7533-1.2312 1.3316-2.8319 1.6177-4.6616-.5373 1.8239-1.4569 3.0262-2.5012 3.0262-1.6569 0-3-3.0265-3-6.76 0-3.7334 1.3431-6.76 3-6.76.1763 0 .349.0343.517.1-1.0255-1.4199-2.2102-2.0764-3.3178-2.0764-1.2423 0-2.5814.8258-3.6843 2.6282z" fill="#1c1c1e" fill-rule="evenodd"/></svg>

<svg width="40" height="40" viewBox="0 0 40 40" fill="none" xmlns="http://www.w3.org/2000/svg">
<path fill-rule="evenodd" clip-rule="evenodd" d="M8.81574 12.7482C7.7242 14.5321 7 17.0918 7 20C7 22.9082 7.7242 25.4679 8.81574 27.2518C9.91861 29.0542 11.2577 29.88 12.5 29.88C13.7423 29.88 15.0814 29.0542 16.1843 27.2518C16.9376 26.0206 17.5159 24.4199 17.802 22.5902C17.2647 24.4141 16.3451 25.6164 15.3008 25.6164C13.6439 25.6164 12.3008 22.5899 12.3008 18.8564C12.3008 15.123 13.6439 12.0964 15.3008 12.0964C15.4771 12.0964 15.6498 12.1307 15.8178 12.1964C14.7923 10.7765 13.6076 10.12 12.5 10.12C11.2577 10.12 9.91861 10.9458 8.81574 12.7482ZM6.28476 11.0732C7.7154 8.7351 9.87627 7 12.5 7C15.1237 7 17.2846 8.7351 18.7152 11.0732C19.2206 11.899 19.6523 12.8236 20 13.823C20.3477 12.8236 20.7794 11.899 21.2848 11.0732C22.7154 8.7351 24.8763 7 27.5 7C30.1237 7 32.2846 8.7351 33.7152 11.0732C35.1572 13.4297 36 16.5901 36 20C36 23.4099 35.1572 26.5703 33.7152 28.9268C32.2846 31.2649 30.1237 33 27.5 33C24.8763 33 22.7154 31.2649 21.2848 28.9268C20.7794 28.101 20.3477 27.1764 20 26.177C19.6523 27.1764 19.2206 28.101 18.7152 28.9268C17.2846 31.2649 15.1237 33 12.5 33C9.87627 33 7.7154 31.2649 6.28476 28.9268C4.8428 26.5703 4 23.4099 4 20C4 16.5901 4.8428 13.4297 6.28476 11.0732ZM23.8157 12.7482C22.7242 14.5321 22 17.0918 22 20C22 22.9082 22.7242 25.4679 23.8157 27.2518C24.9186 29.0542 26.2577 29.88 27.5 29.88C28.7423 29.88 30.0814 29.0542 31.1843 27.2518C31.9376 26.0206 32.5159 24.4199 32.802 22.5902C32.2647 24.4141 31.3451 25.6164 30.3008 25.6164C28.6439 25.6164 27.3008 22.5899 27.3008 18.8564C27.3008 15.123 28.6439 12.0964 30.3008 12.0964C30.4771 12.0964 30.6498 12.1307 30.8178 12.1964C29.7923 10.7765 28.6076 10.12 27.5 10.12C26.2577 10.12 24.9186 10.9458 23.8157 12.7482Z" fill="#1C1C1E"/>
</svg>
